X:1
T:6 Geistliche Gesänge
T:Sei still dem Herrn
T:Moritz Hauptmann
T:Friedrich Oser
T:Sei still dem Herrn
T:No. 6 aus 6 Geistliche Gesänge, Op.42
T:CPDL   —   Creative Commons Attribution Non Commercial 3.0
T:CPDL   —   Creative Commons Attribution Non Commercial 3.0
C:Moritz Hauptmann
Z:Friedrich Oser
Z:CPDL   —   Creative Commons Attribution Non Commercial 3.0
%%score [ ( 1 2 ) ( 3 4 ) ]
L:1/8
Q:1/4=90
M:4/4
K:C
V:1 treble nm="S\nA"
V:2 treble 
V:3 bass nm="T\nB"
V:4 bass 
V:1
!p!"^Mäßig geschwind" C2 |: C2 C2 C2 C2 | D3 E F2 F2 | E2!<(! A2 G2 c2!<)! | %4
w: Sei|still dem Herrn, und|wart' auf ihn, ver-|barg er auch sein|
!>(! (c2 B)A!>)! G2!mf! G2 |"^cresc." A2 c2 f2 ed | c3 B A2!<(! e2!<)! | %7
w: An- * ge- sicht, und|ob vor Leid das _|Herz dir bricht, den|
 d3!>(! B!>)! G2!<(! GA!<)! | B2"^decresc." d2 B2 AG |1 G4 z2!p! G2 :|2 G4 z2!p! G2 || %11
w: * * dein wirf _|ihn, wirf ihn nicht _|hin! Sei|hin! O|
 G2 G2 z2 G2 | A2 A2 z4 | B3!<(! B A2!<)! G2 |!>(! d6!>)! z2 | B3 B A2"^cresc." G2 | G2 c2 e2 c2 | %17
w: war- te! o|war- te!|bald tritt er her-|ein,|bald tritt er her-|ein in sei- ner|
!f!!>(! c3!>)! B"^dim." A2 d2 | B4 z2!f! G2 | e3 d c2 B2 |!>(! B3!>)! A A2 A2 | %21
w: gan- zen Freund- lich-|keit; wie|flieht vor sei- nem|Gru- ße weit und|
 f2 e2!<(! d2 =c2!<)! |!>(! c3 B!>)! B2"^dolce" _BA | A2 A2!<(! d2 _A2!<)! |!>(! G4!>)! z2 =AG | %25
w: kehrt in Freu- de|sich die Pein, in _|Freu- de sich die|Pein, in _|
 G2 G2!<(! c2 G2!<)! | F4 B3 E | E2 E2"^dim." A2 D2 | D4 z2!p! G2 | %29
w: Freu- de sich die|Pein, kehrt in|Freu- de sich die|Pein! Du|
 C2 C2 C2[Q:1/4=90]"^riten." C2 | D3 E !fermata!F2 | F2 | E2!<(! A2 G2!<)![Q:1/4=90]"^rit." c2 | %33
w: a- ber sinkst zur|Er- de hin|und|rufst be- schämt: Mein|
!>(! (c2 B)!>)!A !breath!!fermata!G2!mf![Q:1/4=90]"^un poco più lento" G2 | A2"^cresc." c2 f2 ed | %35
w: Gott _ und Herr! und|glaubst und zwei- felst _|
!f! c3 B A2 =G2 | F2 E2 D2 CD | E2 z2"^dim." E2 z2 | !fermata!E6 |] %39
w: nim- mer- mehr; so|sei ihm still und _|wart' auf|ihn!|
V:2
 C2 |: C2 C2 C2 C2 | C3 C C2 B,2 | C2 C2 C2 ^F2 | =F3 F F2 E2 | F2 G2 A2 ^G2 | A3 ^G E2 =G2 | %7
w: |||||||
 G2 G2 G2 G2 | G6 ^F2 |1 D4 x2 G2 :|2 D4 x2 G2 || G2 G2 x2 G2 | ^F2 F2 x4 | =F3 F F2 F2 | F6 x2 | %15
w: Glau- ben * *|ihn nicht|||||||
 F3 F F2 F2 | E2 G2 G2 G2 | ^F3 G A2 F2 | G4 x2 G2 | E3 F G2 ^G2 | ^G3 A A2 =G2 | F2 G2 A2 A2 | %22
w: |||||||
 G3 G G2 E2 | A,2 C2 F2 F2 | F4 x2 F2 | E2 E2 G2 E2 | D4 z2 D2 | D2 C2 C2 DC | B,4 x2 G2 | %29
w: ||||* in|||
 C2 C2 C2 C2 | C3 C C2 | B,2 | C2 C2 C2 ^F2 | =F3 F F2 E2 | F2 G2 A2 ^G2 | A3 ^G E2 E2 | %36
w: |||||||
 D2 C2 B,2 A,B, | B,2 x2 C2 x2 | B,6 |] %39
w: |||
V:3
!p! C2 |: C2 C2 C2 B,2 | A,3 A, A,2 G,2 | G,2!<(! F,2 G,2 A,D!<)! |!>(! D3 C!>)! B,2!mf! C2 | %5
w: |||||
"^cresc." C2 C2 C2 B,E | E3 D C2!<(! _B,2!<)! | =B,3!>(! D!>)! B,2!<(! ^C2!<)! | %8
w: |||
 D2"^decresc." B,2 D2 =C2 |1 B,4 z2!p! G,2 :|2 B,4 z2!p! G,2 || G,2 G,2 z2 B,2 | C2 C2 z2 z2 | %13
w: * wirf ihn *|||||
 D3!<(! D C2!<)! B,2 |!>(! B,6!>)! z2 | D3 D C2"^cresc." B,2 | C2 E2 C2 E2 | %17
w: ||||
!f!!>(! A,3!>)! B,"^dim." C2 A,2 | D4 z2!f!!f! G,2 | G,3 B, C2 D2 |!>(! D3!>)! C C2 ^C2 | %21
w: ||||
 A,2 ^C2!<(! D2 _E2!<)! |!>(! =E3 D!>)! D2"^dolce" ^C2 | D2 =C2!<(! B,2 C2!<)! | %24
w: |||
!>(! D4!>)! z2 B,2 | C2 B,2!<(! A,2 C2-!<)! | C2 B,A, (^G,4 | A,3) =G,"^dim." F,2 ^F,2 | %28
w: |* * * kehrt|_ in _ Freu-|* de sich die|
 G,4 z2!p! G,2 | C2 C2 C2 B,2 | A,3 A, !fermata!A,2 | G,2 | G,2!<(! F,2 G,2!<)! A,D | %33
w: Pein! *|||||
!>(! D3!>)! C !breath!!fermata!B,2!mf! C2 | C2"^cresc." C2 C2 B,E |!f! E3 D C2 _B,2 | %36
w: |||
 A,2 A,2 A,2 A,2 | ^G,2 z2"^dim." A,2 z2 | !fermata!^G,6 |] %39
w: |||
V:4
 C,2 |: C2 B,2 A,2 G,2 | F,3 E, D,2 G,2 | C,2 F,2 E,2 D,2 | G,,3 D, G,2 C,2 | F,2 E,2 D,2 E,2 | %6
w: ||||||
 A,,3 B,, C,2 ^C,2 | D,3 D, D,2 E,2 | D,6 D,2 |1 G,,4 x2 G,2 :|2 G,,4 x2 G,2 || G,2 G,2 x2 G,2 | %12
w: ||ihn nicht||||
 G,2 G,2 x2 G,2 | G,2 G,2 z2 G,2 | G,2 G,2 z2 G,2 | G,2 G,2 G,4- | G,2 G,2 G,4- | G,2 G,2 G,2 G,2 | %18
w: * * bald|tritt er, o|war- te, her-|ein in sei-|* ner gan-|* zen * *|
 G,4 x2 G,2 | C,3 D, E,2 C,2 | F,3 F, F,2 E,2 | D,2 E,2 F,2 ^F,2 | G,3 G,, G,,2 G,2 | %23
w: |||||
 F,2 E,2 D,2 C,2 | B,,4 z4 | z8 | z8 | z8 | z4 x2 G,2 | C2 B,2 A,2 G,2 | F,3 E, D,2 | G,2 | %32
w: |||||||||
 C,2 F,2 E,2 D,2 | G,,3 D, G,2 C,2 | F,2 E,2 D,2 E,2 | A,,3 B,, C,2 ^C,2 | D,2 E,2 F,2 F,2 | %37
w: |||||
 E,2 x2 A,,2 x2 | [E,,E,]6 |] %39
w: ||

